hero/outline/signal.svg

<svg width="24" height="24" viewBox="0 0 24 24" fill="none" xmlns="http://www.w3.org/2000/svg">
<path d="M9.34835 14.6517C7.88388 13.1872 7.88388 10.8128 9.34835 9.34835M14.6517 9.34835C16.1161 10.8128 16.1161 13.1872 14.6517 14.6517M7.22703 16.773C4.59099 14.1369 4.59099 9.86307 7.22703 7.22703M16.773 7.22703C19.409 9.86307 19.409 14.1369 16.773 16.773M5.10571 18.8943C1.2981 15.0867 1.2981 8.91333 5.10571 5.10571M18.8943 5.10571C22.7019 8.91333 22.7019 15.0867 18.8943 18.8943M12 12H12.0075V12.0075H12V12ZM12.375 12C12.375 12.2071 12.2071 12.375 12 12.375C11.7929 12.375 11.625 12.2071 11.625 12C11.625 11.7929 11.7929 11.625 12 11.625C12.2071 11.625 12.375 11.7929 12.375 12Z" stroke="#0F172A" stroke-width="1.5" stroke-linecap="round" stroke-linejoin="round"/>
</svg>

<svg viewBox="0 0 24 24" xmlns="http://www.w3.org/2000/svg"><path fill="none" stroke="#000" stroke-linecap="round" stroke-linejoin="round" stroke-width="1.5" d="M9.34 14.651h0c-1.47-1.47-1.47-3.84-.001-5.31m5.3 0v0c1.46 1.46 1.46 3.83 0 5.3M7.21 16.763h0c-2.64-2.64-2.64-6.91-.01-9.55 0-.01 0-.01 0-.01m9.546 0V7.2c2.63 2.63 2.63 6.9 0 9.54 -.01 0-.01 0-.01 0M5.07 18.86C1.26 15.05 1.26 8.88 5.07 5.07m13.78-.001c3.808 3.8 3.808 9.98 0 13.79m-6.9-6.9h0v0h-.01v-.01Zm.375 0v0c0 .2-.17.375-.375.375 -.21 0-.375-.17-.375-.375v0c0-.21.16-.375.375-.375 .2 0 .375.16.375.375Z"/></svg>
